icon/cg/color-picker.svg

<svg viewBox="0 0 24 24" fill="none" xmlns="http://www.w3.org/2000/svg" height="1em" width="1em">
  <path d="M20.3847 2.87868C19.2132 1.70711 17.3137 1.70711 16.1421 2.87868L14.0202 5.00052L13.313 4.29332C12.9225 3.9028 12.2894 3.9028 11.8988 4.29332C11.5083 4.68385 11.5083 5.31701 11.8988 5.70754L17.5557 11.3644C17.9462 11.7549 18.5794 11.7549 18.9699 11.3644C19.3604 10.9739 19.3604 10.3407 18.9699 9.95018L18.2629 9.24316L20.3847 7.12132C21.5563 5.94975 21.5563 4.05025 20.3847 2.87868Z" fill="currentColor"/>
  <path fill-rule="evenodd" clip-rule="evenodd" d="M11.9297 7.09116L4.1515 14.8693C3.22786 15.793 3.03239 17.169 3.5651 18.2842L1.99994 19.8493L3.41415 21.2635L4.97931 19.6984C6.09444 20.2311 7.4705 20.0356 8.39414 19.112L16.1723 11.3338L11.9297 7.09116ZM13.3439 11.3338L11.9297 9.91959L5.56571 16.2835C5.17518 16.6741 5.17518 17.3072 5.56571 17.6978C5.95623 18.0883 6.5894 18.0883 6.97992 17.6978L13.3439 11.3338Z" fill="currentColor"/>
</svg>

<svg width="24" height="24" fill="none" xmlns="http://www.w3.org/2000/svg"><path d="M20.385 2.879a3 3 0 0 0-4.243 0L14.02 5l-.707-.708a1 1 0 1 0-1.414 1.415l5.657 5.656A1 1 0 0 0 18.97 9.95l-.707-.707 2.122-2.122a3 3 0 0 0 0-4.242Z" fill="currentColor"/><path fill-rule="evenodd" clip-rule="evenodd" d="M11.93 7.091 4.152 14.87a3.001 3.001 0 0 0-.587 3.415L2 19.85l1.414 1.415 1.565-1.566a3.001 3.001 0 0 0 3.415-.586l7.778-7.778L11.93 7.09Zm1.414 4.243L11.93 9.92l-6.364 6.364a1 1 0 0 0 1.414 1.414l6.364-6.364Z" fill="currentColor"/></svg>
